!!!COM: Mozart, Wolfgang Amadeus
!!!OTL: Quartet No. 4 in A Major for flute, violin, viola and cello
!!!OMD: Menuetto
!!!OMV: 2
!!!SCT1: K<sup>1</sup> 298
!!!SCA: Chronologisch-thematisches Verzeichnis sämtlicher Tonwerke Wolfgang Amade Mozarts (L. von Köchel; 1862, 2/1905, 3/1937, 1947)
!!!SCT2: K<sup>6</sup> 298
!!!YOR: Breitkopf & Härtel Edition
!!!ENC: Frances Bennion
!!!CDT: 1756/1/27/-1791/12/5/
!!!OCY: Österreich
!!!YEC: Copyright (c) 1994, 2000 Center for Computer Assisted Research in the Humanities
!!!YEM: Rights to all derivative editions reserved.
!!!YEM: Refer to licensing agreement for further details.
!!!YEN: United States of America
**kern	**kern	**kern	**kern
*k[f#c#]	*k[f#c#]	*k[f#c#]	*k[f#c#]
*D:	*D:	*D:	*D:
*clefC	*clefF	*clefG	*clefG
*M3/4	*M3/4	*M3/4	*M3/4
4..r	4..r	4..r	4..r
4r	4r	16f#	16a
.	.	8.a	8.dd
16r	16r	16dd	16ff#
=1	=1	=1	=1
4D	4f#	4ff#	4aa
4F#	4a	4ff#	4aa
4A	4cc#	4ee	4gg
=2	=2	=2	=2
2d	4cc#	4ee	4gg
.	4dd	4dd	4ff#
4r	4r	4ff#	4aa
=3	=3	=3	=3
4G	2.b	8ff#	8aa
.	.	8ee	8gg
8E	.	8gg	8bb
8F#	.	8ff#	8aa
8G	.	8ee	8gg
8G#	.	8dd	8ff#
=4	=4	=4	=4
4A	2a	4dd	4ff#
4AA	.	8cc#	8ee
.	.	16r	16r
.	.	16f#	16a
4r	4r	8.a	8.dd
.	.	16dd	16ff#
=5	=5	=5	=5
4DD	4F#	4ff#	4aa
4FF#	4A	4ff#	4aa
4AA#	4c#	4ee	4gg
=6	=6	=6	=6
2BB	4c#	4ee	4gg
.	4d	4dd	8.ff#
.	.	.	16ff#
4F#	4a	4dd	8.aa
.	.	.	16ff#
=7	=7	=7	=7
4G	2g	2b	8.ee
.	.	.	16ee
4E	.	.	8.gg
.	.	.	16ee
4A	8.e	4g	8.cc#
.	16c#	.	16ee
=8	=8	=8	=8
4D	4d	4f#	4dd
8d	8.r	8.r	8.r
16r	.	.	.
4r	4r	16r	16g#
.	.	8.a	8.a
16r	16r	16g#	16b
=9	=9	=9	=9
8AA	2.e	4a	4cc#
8A	.	.	.
8AA	.	8.a	8.cc#
8A	.	.	.
.	.	16c#	16a
8AA	.	8.a	8.cc#
8A	.	.	.
.	.	16b	16dd
=10	=10	=10	=10
4AA	4a	8cc#	8ee
.	.	8a	8cc#
2r	2r	8b	8dd
.	.	8b#	8dd#
.	.	8cc#	8ee
.	.	8cc#	8ee#
=11	=11	=11	=11
4D	4a	8dd	8ff#
.	.	8ff#	8aa
8r	8r	8ff	8gg#
8A#	8c#	8ee	8gg
8B	8d	8dd	8ff#
8G	8b	8ee	8gg
=12	=12	=12	=12
4A	4.a	4dd	4ff#
4AA	.	8cc#	8ee
.	4.r	16r	16r
.	.	16a	16a
4r	.	8.f#	8.dd
.	.	16dd	16ff#
=13	=13	=13	=13
4DD	4F#	4ff#	4aa
4FF#	4A	4ff#	4aa
4AA#	4c#	4ee	4gg
=14	=14	=14	=14
2BB	4c#	4ee	4gg
.	4d	8dd	8ff#
.	.	16r	16r
.	.	16ff#	16ddd
4F#	4a	8.dd	8.aa
.	.	16a	16ff#
=15	=15	=15	=15
4G	2g	2b	8.ee
.	.	.	16ee
4E	.	.	8.gg
.	.	.	16ee
4A	8.e	4g	8.cc#
.	16c#	.	16ee
=16a	=16a	=16a	=16a
4D	4d	4f#	4dd
8d	8.r	8.r	8.r
16r	.	.	.
4r	4r	4r	4r
16r	16r	16r	16r
=16b	=16b	=16b	=16b
4D	4d	4f#	4dd
4d	4r	4r	4r
4r	4r	4r	4aa
=17	=17	=17	=17
4D	8d	8a 8f#	16gg#
.	.	.	16aa
.	8d	8a 8f#	16bb
.	.	.	16aa
4r	8d	8a 8f#	16gg
.	.	.	16ff#
.	8d	8a 8f#	16ee
.	.	.	16dd
4AA	8c#	8a 8g	16ee
.	.	.	16dd
.	8c#	8a 8g	16ee
.	.	.	16ff#
=18	=18	=18	=18
4D	8d	8a 8f#	8dd
.	8d	8a 8f#	8dd
4r	8d	8a 8f#	4dd
.	8d	8a 8f#	.
4D	8d	8a 8f#	16ee
.	.	.	16dd
.	8d	8a 8f#	16ee
.	.	.	16ff#
=19	=19	=19	=19
2C#	8e	8a 8g	8gg
.	8e	8a 8g	8gg
.	8e	8a 8g	4gg
.	8e	8a 8g	.
4D	8d	8a 8f#	16ff#
.	.	.	16ee
.	8d	8a 8f#	16ff#
.	.	.	16gg
=20	=20	=20	=20
2.AA	8c#	8a 8e	8ee
.	8c#	8a 8e	8ee
.	8c#	8a 8e	4ee
.	8d	8f#	.
.	8e	8g	4aa
.	8c#	8e	.
=21	=21	=21	=21
4D	8d	8a 8f#	16gg#
.	.	.	16aa
.	8d	8a 8f#	16bb
.	.	.	16aa
4r	8d	8a 8f#	16gg
.	.	.	16ff#
.	8d	8a 8f#	16ee
.	.	.	16dd
4AA	8c#	8a 8g	16ee
.	.	.	16dd
.	8c#	8a 8g	16ee
.	.	.	16ff#
=22	=22	=22	=22
2.DD	8d	8a 8f#	8dd
.	8d	8a 8f#	8dd
.	8d	8b 8g	4dd
.	8d	8b 8g	.
.	8d	8cc 8a	16ee
.	.	.	16dd
.	8d	8cc 8a	16ee
.	.	.	16ff#
=23	=23	=23	=23
8GG	8d	8b 8g	8gg
8r	8r	8r	16bb
.	.	.	16gg
8AA	8d	8a 8f#	8ff#
8r	8r	8r	16aa
.	.	.	16ff#
8AA	8a 8g	8cc# 8e	8ee
8r	8r	8r	16gg
.	.	.	16ee
=24	=24	=24	=24
8D	4a 4f#	4dd 4d	4dd
8AA	.	.	.
4DD	4r	4r	4r
4r	4r	4r	4ee
=25	=25	=25	=25
2AA	8c#	8a 8g	16dd#
.	.	.	16ee
.	8c#	8a 8g	16dd#
.	.	.	16ee
.	8c#	8a 8g	16dd#
.	.	.	16ee
.	8c#	8a 8g	16gg
.	.	.	16ee
8D	8d	8a 8f#	8dd
8r	8d	8a 8f#	8r
=26	=26	=26	=26
2AA	8a	8cc# 8e	16ff#
.	.	.	16gg
.	8a	8cc# 8e	16ff#
.	.	.	16gg
.	8a	8cc# 8e	16ff#
.	.	.	16gg
.	8a	8cc# 8e	16bb
.	.	.	16gg
8DD	8a	8dd 8d	8ff#
8r	8a	8dd 8d	8r
=27	=27	=27	=27
8AA	8r	8r	8ee
8r	8e	8cc# 8a	8ee
8D	8r	8r	8ff#
8r	8f# 8d	8dd 8a	8ff#
8E	8r	8r	8gg#
8r	8b	8dd 8e	8gg#
=28	=28	=28	=28
2.AA	8r	8r	8aa
.	8A	8c#	16gg#
.	.	.	16aa
.	8B-	8d	16gg#
.	.	.	16aa
.	8B	8d#	16gg#
.	.	.	16aa
.	8c	8e	16gg#
.	.	.	16aa
.	8c#	8e#	16gg#
.	.	.	16aa
=29	=29	=29	=29
4D	8d	8a 8f#	16gg#
.	.	.	16aa
.	8d	8a 8f#	16bb
.	.	.	16aa
4r	8d	8a 8f#	16gg
.	.	.	16ff#
.	8d	8a 8f#	16ee
.	.	.	16dd
4AA	8c#	8a 8g	16ee
.	.	.	16dd
.	8c#	8a 8g	16ee
.	.	.	16ff#
=30	=30	=30	=30
2.DD	8d	8a 8f#	8dd
.	8d	8a 8f#	8dd
.	8d	8b 8g	4dd
.	8d	8b 8g	.
.	8d	8cc 8a	16ee
.	.	.	16dd
.	8d	8cc 8a	16ee
.	.	.	16ff#
=31	=31	=31	=31
8GG	8d	8b 8g	8gg
8r	8r	8r	16bb
.	.	.	16gg
8AA	8d	8a 8f#	8ff#
8r	8r	8r	16aa
.	.	.	16ff#
8AA	8a 8g	8cc# 8e	8ee
8r	8r	8r	16gg
.	.	.	16ee
=32a	=32a	=32a	=32a
8D	4a 4f#	4dd 4d	4dd
8AA	.	.	.
4DD	4r	4r	4r
4r	4r	4r	4r
=32b	=32b	=32b	=32b
8D	4a 4f#	4dd 4d	4dd
8AA	.	.	.
8.DD	8.r	8.r	8.r
4r	4r	4r	4r
16r	16r	16r	16r
==	==	==	==
*-	*-	*-	*-
!!!RWG1: This file contains only pitch and duration data.
!!!RWG2: Transposing instruments are not transposed.
!!!RWG3: Spines may have incompatible meters.
!!!RWG4: Durations of rests and tied notes may be interpreted.
!!!RWG: Key is interpreted using the Humdrum key tool.
!!!AFT: stage1
!!!END: 1997/04/15
!!!KEY: 3553507297
!!!EMD: Converted from MuseData to Humdrum Dec 16, 2000, by Andreas Kornstaedt using muse2kern.
!!!EMD: Manual editing by Craig Sapp, Nov 2001
